src/i/webstep.svg

<svg width="140" height="37" viewBox="0 0 140 37" fill="none" xmlns="http://www.w3.org/2000/svg" aria-label="Webstep">
    <g fill="#1a1a1a" class="logo-front">
        <path d="M25.1417 18.3407H21.9996L18.8574 27.89H21.9996L25.1417 18.3407Z"></path>
        <path d="M12.5713 18.3407H15.7134L18.8556 27.89H15.7134L12.5713 18.3407Z"></path>
        <path d="M25.1417 8.7915H21.9996L18.8574 18.3408H21.9996L25.1417 8.7915Z"></path>
        <path d="M12.5713 8.7915H15.7134L18.8556 18.3408H15.7134L12.5713 8.7915Z"></path>
        <path d="M12.5704 18.3407H9.42632L6.28418 27.89H9.42632L12.5704 18.3407Z"></path>
        <path d="M-0.00195312 18.3407H3.14018L6.28422 27.89H3.14018L-0.00195312 18.3407Z"></path>
        <path d="M12.5704 8.7915H9.42632L6.28418 18.3408H9.42632L12.5704 8.7915Z"></path>
        <path d="M-0.00195312 8.7915H3.14018L6.28422 18.3408H3.14018L-0.00195312 8.7915Z"></path>
        <path d="M40.2426 24.6313C39.3924 25.4182 38.1998 25.8097 36.6611 25.8097C35.8394 25.8097 35.0425 25.6645 34.274 25.3704C33.5037 25.0782 32.8152 24.5988 32.2046 23.9323C31.5941 23.2677 31.1433 22.3872 30.8523 21.2948C30.645 20.5175 30.5537 19.6103 30.5746 18.5771H44.7789C45.0433 17.1924 45.0566 15.8861 44.8188 14.6619C44.5792 13.4377 44.1018 12.3509 43.3866 11.4056C42.6695 10.4602 41.7547 9.70771 40.6401 9.14812C39.5255 8.58853 38.1998 8.30969 36.6611 8.30969C35.2555 8.30969 33.9811 8.55606 32.8418 9.04881C31.7006 9.54155 30.7268 10.2406 29.9165 11.1458C29.1062 12.0511 28.4843 13.1168 28.0468 14.3429C27.6094 15.5691 27.3906 16.9136 27.3906 18.3784C27.3906 19.8433 27.5903 21.0885 27.9879 22.2746C28.3854 23.4606 28.975 24.5129 29.7586 25.4315C30.5404 26.3502 31.5104 27.0759 32.663 27.6088C33.8175 28.1416 35.1223 28.4071 36.5831 28.4071C38.1751 28.4071 39.5597 28.1283 40.7409 27.5687C41.9202 27.0091 42.8769 26.2509 43.6053 25.2921C44.3338 24.3334 44.7656 23.2276 44.8987 21.9766L41.7547 21.7379C41.5949 22.8838 41.0909 23.8502 40.2426 24.6351V24.6313ZM31.6683 13.5026C32.1856 12.6775 32.8684 12.0244 33.7167 11.545C34.565 11.0656 35.5332 10.825 36.6211 10.825C37.8403 10.825 38.8294 11.0847 39.5864 11.6042C40.3434 12.1237 40.8988 12.7959 41.2583 13.6229C41.6158 14.448 41.768 15.3551 41.7166 16.3406H30.7344C30.8409 15.2749 31.1528 14.3296 31.6702 13.5045L31.6683 13.5026Z"></path>
        <path d="M58.5879 28.4077C57.6065 28.4077 56.6707 28.2339 55.7824 27.8882C54.8942 27.5426 54.1048 27.0555 53.4144 26.4291C52.724 25.8027 52.18 25.0502 51.7825 24.1717V27.8882H48.5205V-0.00137329H51.7825V12.5044C52.2066 11.6258 52.7639 10.8733 53.4543 10.2469C54.1448 9.62048 54.9265 9.1411 55.8014 8.80879C56.6764 8.47647 57.6045 8.30841 58.586 8.30841C59.8052 8.30841 60.9274 8.54905 61.9488 9.02842C62.9701 9.50779 63.8641 10.2011 64.6344 11.1063C65.4028 12.0116 65.9944 13.0716 66.4052 14.2824C66.816 15.4952 67.0214 16.8588 67.0214 18.3772C67.0214 19.8955 66.816 21.1885 66.4052 22.4127C65.9944 23.6388 65.4028 24.6969 64.6344 25.5888C63.8641 26.4807 62.9701 27.174 61.9488 27.6667C60.9274 28.1594 59.8071 28.4058 58.586 28.4058L58.5879 28.4077ZM51.8224 18.3772C51.8224 19.8955 52.0678 21.2018 52.5585 22.2924C53.0492 23.3848 53.7587 24.2309 54.6869 24.8306C55.615 25.4303 56.663 25.7301 57.8309 25.7301C58.7058 25.7301 59.5085 25.5563 60.2388 25.2106C60.9673 24.8649 61.5988 24.3722 62.1295 23.7324C62.6601 23.0926 63.0652 22.3134 63.3429 21.3947C63.6206 20.4761 63.7614 19.4696 63.7614 18.3791C63.7614 16.8607 63.5084 15.5487 63.0063 14.4429C62.5023 13.3371 61.8118 12.4795 60.9369 11.8665C60.062 11.2534 59.0273 10.9478 57.8328 10.9478C56.9579 10.9478 56.1419 11.1216 55.3849 11.4673C54.6298 11.813 53.9926 12.3057 53.4753 12.9455C52.9579 13.5853 52.5528 14.3646 52.2618 15.2832C51.9689 16.2018 51.8243 17.2351 51.8243 18.3791L51.8224 18.3772Z"></path>
    </g>
    <g fill="#1a1a1a" class="logo-back">
        <path d="M77.4884 28.4082C75.8698 28.4082 74.4509 28.1293 73.2317 27.5697C72.0106 27.0102 71.0424 26.2176 70.3273 25.192C69.6102 24.1664 69.2127 22.9345 69.1328 21.4964L72.2769 21.2959C72.3035 22.2279 72.5412 23.0472 72.9939 23.7539C73.4447 24.4605 74.0552 25.0067 74.8237 25.3925C75.5921 25.7783 76.4955 25.9712 77.5302 25.9712C78.3785 25.9712 79.1279 25.8375 79.7784 25.572C80.4289 25.3066 80.9196 24.9322 81.2506 24.4529C81.5815 23.9735 81.7489 23.4273 81.7489 22.8142C81.7489 22.0694 81.5302 21.483 81.0927 21.0552C80.6552 20.6293 80.0903 20.2836 79.4018 20.0163C78.7114 19.7508 77.9354 19.5235 77.0737 19.3364C76.2121 19.1511 75.3619 18.9372 74.5269 18.6966C73.692 18.4578 72.9159 18.158 72.1989 17.797C71.4818 17.4361 70.9188 16.9509 70.508 16.3379C70.0971 15.7248 69.8917 14.9265 69.8917 13.941C69.8917 12.7703 70.2037 11.7638 70.8275 10.9254C71.4514 10.0869 72.3054 9.4414 73.3933 8.98685C74.4813 8.53422 75.7404 8.30695 77.1726 8.30695C78.6049 8.30695 79.826 8.53995 80.9139 9.00595C82.0019 9.47196 82.8635 10.1251 83.5007 10.9636C84.1378 11.802 84.4821 12.7817 84.5354 13.9009L81.5112 14.1014C81.4313 13.1427 81.0204 12.331 80.2767 11.6645C79.5331 10.9998 78.4869 10.6656 77.1327 10.6656C76.3377 10.6656 75.6396 10.7917 75.0443 11.0457C74.4471 11.2997 73.9754 11.6396 73.6311 12.0636C73.2868 12.4895 73.1137 12.9956 73.1137 13.582C73.1137 14.2485 73.3192 14.7737 73.73 15.1595C74.1408 15.5453 74.7057 15.8528 75.4209 16.0781C76.1379 16.3054 76.9254 16.5117 77.7889 16.6969C78.6505 16.8841 79.5007 17.0961 80.3357 17.3367C81.1707 17.5755 81.941 17.8906 82.6429 18.2764C83.3447 18.6622 83.9172 19.195 84.3547 19.8749C84.7921 20.5548 85.0109 21.4124 85.0109 22.4513C85.0109 23.7042 84.6989 24.7756 84.0751 25.6675C83.4512 26.5594 82.5763 27.2393 81.4484 27.7053C80.3205 28.1713 79.0005 28.4043 77.4884 28.4043V28.4082Z"></path>
        <path d="M98.6554 24.3327C98.2826 24.8121 97.8394 25.152 97.322 25.3506C96.8047 25.5512 96.3197 25.6505 95.8689 25.6505C95.0453 25.6505 94.3834 25.3774 93.8794 24.8312C93.3753 24.2849 93.1243 23.3988 93.1243 22.1746V11.3476H98.973V8.7903H93.1243V2.95569H89.9004V8.78839H86.1191V11.3457H89.9004V22.6138C89.9004 23.8667 90.1381 24.9247 90.6174 25.7899C91.0948 26.6551 91.751 27.3082 92.5879 27.7475C93.4229 28.1868 94.3587 28.4064 95.3934 28.4064C95.9507 28.4064 96.4737 28.3529 96.9645 28.246C97.4552 28.139 97.906 27.9786 98.3168 27.7666C98.7276 27.5546 99.0795 27.3273 99.3705 27.0867L98.6534 24.3308L98.6554 24.3327Z"></path>
        <path d="M113.219 24.6313C112.371 25.4182 111.176 25.8097 109.638 25.8097C108.814 25.8097 108.019 25.6645 107.251 25.3704C106.48 25.0782 105.792 24.5988 105.181 23.9323C104.571 23.2677 104.12 22.3872 103.829 21.2948C103.622 20.5175 103.53 19.6103 103.551 18.5771H117.757C118.022 17.1924 118.035 15.8861 117.797 14.6619C117.56 13.4377 117.08 12.3509 116.365 11.4056C115.648 10.4602 114.733 9.70771 113.621 9.14812C112.506 8.58853 111.18 8.30969 109.642 8.30969C108.236 8.30969 106.962 8.55606 105.822 9.04881C104.681 9.54155 103.707 10.2406 102.897 11.1458C102.087 12.0511 101.465 13.1168 101.027 14.3429C100.59 15.5691 100.371 16.9136 100.371 18.3784C100.371 19.8433 100.571 21.0885 100.968 22.2746C101.366 23.4606 101.955 24.5129 102.739 25.4315C103.521 26.3502 104.491 27.0759 105.643 27.6088C106.798 28.1416 108.103 28.4071 109.564 28.4071C111.156 28.4071 112.542 28.1283 113.721 27.5687C114.901 27.0091 115.857 26.2509 116.586 25.2921C117.314 24.3334 117.746 23.2276 117.879 21.9766L114.735 21.7379C114.575 22.8838 114.071 23.8502 113.223 24.6351L113.219 24.6313ZM104.645 13.5026C105.162 12.6775 105.845 12.0244 106.693 11.545C107.542 11.0656 108.51 10.825 109.598 10.825C110.817 10.825 111.806 11.0847 112.563 11.6042C113.318 12.1237 113.875 12.7959 114.235 13.6229C114.592 14.448 114.745 15.3551 114.693 16.3406H103.711C103.818 15.2749 104.129 14.3296 104.647 13.5045L104.645 13.5026Z"></path>
        <path d="M131.564 28.4077C130.583 28.4077 129.647 28.2415 128.759 27.9073C127.871 27.575 127.081 27.1013 126.391 26.4883C125.7 25.8752 125.156 25.1304 124.759 24.2499V34.9986H121.495V8.78772H124.759V12.5043C125.156 11.6258 125.7 10.8733 126.391 10.2469C127.079 9.62042 127.869 9.14105 128.759 8.80873C129.647 8.47642 130.596 8.30835 131.604 8.30835C132.799 8.30835 133.906 8.54899 134.927 9.02837C135.949 9.50774 136.843 10.201 137.613 11.1063C138.381 12.0116 138.973 13.0715 139.384 14.2824C139.794 15.4951 140 16.8588 140 18.3771C140 19.8954 139.794 21.1884 139.384 22.4126C138.973 23.6388 138.381 24.6968 137.613 25.5887C136.843 26.4806 135.949 27.1739 134.927 27.6666C133.906 28.1594 132.786 28.4058 131.564 28.4058V28.4077ZM124.759 18.3771C124.759 19.9222 125.01 21.2476 125.514 22.3534C126.018 23.4592 126.728 24.2977 127.642 24.8706C128.557 25.4436 129.584 25.73 130.726 25.73C131.627 25.73 132.449 25.5562 133.193 25.2106C133.934 24.8649 134.571 24.3721 135.102 23.7323C135.633 23.0925 136.038 22.321 136.316 21.4157C136.593 20.5104 136.734 19.4982 136.734 18.379C136.734 16.8339 136.481 15.5161 135.979 14.4237C135.475 13.3313 134.779 12.4795 133.891 11.8664C133.002 11.2533 131.947 10.9478 130.728 10.9478C129.877 10.9478 129.082 11.1216 128.34 11.4672C127.597 11.8129 126.962 12.2942 126.431 12.9054C125.9 13.5184 125.489 14.29 125.196 15.222C124.904 16.154 124.759 17.2064 124.759 18.379V18.3771Z"></path>
    </g>
</svg>

<svg xmlns="http://www.w3.org/2000/svg" width="140" height="37" fill="none" aria-label="Webstep" viewBox="0 0 140 37"><g fill="#1a1a1a" class="logo-front"><path d="M25.142 18.34H22l-3.143 9.55H22zM12.571 18.34h3.142l3.143 9.55h-3.143z"/><path d="M25.142 8.792H22l-3.143 9.549H22zM12.571 8.792h3.142l3.143 9.549h-3.143zM12.57 18.34H9.426l-3.142 9.55h3.142zM-.002 18.34H3.14l3.144 9.55H3.14zM12.57 8.792H9.426L6.284 18.34h3.142z"/><path d="M-.002 8.792H3.14l3.144 9.549H3.14zM40.243 24.631q-1.274 1.18-3.582 1.179a6.6 6.6 0 0 1-2.387-.44q-1.154-.438-2.07-1.438-.914-.997-1.352-2.637-.31-1.168-.277-2.718h14.204q.397-2.078.04-3.915-.36-1.837-1.432-3.256a7.76 7.76 0 0 0-2.747-2.258q-1.67-.839-3.979-.838-2.11 0-3.82.739a8.3 8.3 0 0 0-2.925 2.097q-1.214 1.357-1.87 3.197-.655 1.838-.655 4.035c0 1.465.2 2.71.597 3.897a9.4 9.4 0 0 0 1.77 3.157q1.174 1.377 2.905 2.177 1.731.799 3.92.798 2.387 0 4.158-.838 1.771-.84 2.864-2.277 1.093-1.439 1.294-3.315l-3.144-.24a4.72 4.72 0 0 1-1.512 2.898zm-8.575-11.128a5.7 5.7 0 0 1 2.049-1.958q1.272-.72 2.904-.72 1.83 0 2.965.78a4.65 4.65 0 0 1 1.672 2.018q.536 1.238.459 2.718H30.734q.16-1.599.936-2.837zM58.588 28.408a7.67 7.67 0 0 1-5.174-1.979 6.8 6.8 0 0 1-1.632-2.257v3.716h-3.261V-.002h3.261v12.506a7.3 7.3 0 0 1 4.02-3.695 7.8 7.8 0 0 1 2.784-.5q1.83 0 3.363.72a7.9 7.9 0 0 1 2.685 2.077q1.154 1.36 1.771 3.176.616 1.819.616 4.095c0 1.518-.205 2.812-.616 4.036q-.616 1.838-1.77 3.176a8.3 8.3 0 0 1-2.686 2.078q-1.532.739-3.363.739zm-6.766-10.03q0 2.277.736 3.914.736 1.64 2.129 2.539 1.392.9 3.144.9 1.312-.001 2.408-.52a5.5 5.5 0 0 0 1.89-1.479q.797-.96 1.214-2.337.418-1.379.418-3.016-.001-2.277-.755-3.936-.756-1.658-2.07-2.576-1.312-.92-3.103-.92-1.312.001-2.448.52a5.2 5.2 0 0 0-1.91 1.478q-.776.96-1.213 2.338-.439 1.38-.438 3.096z"/></g><g fill="#1a1a1a" class="logo-back"><path d="M77.488 28.408q-2.427 0-4.256-.838-1.832-.84-2.905-2.378-1.075-1.539-1.194-3.696l3.144-.2q.038 1.398.717 2.458a4.54 4.54 0 0 0 1.83 1.638q1.154.58 2.706.58 1.273-.001 2.248-.4t1.473-1.12q.496-.718.498-1.638 0-1.117-.656-1.759-.658-.638-1.691-1.039a16 16 0 0 0-2.328-.68q-1.294-.278-2.547-.64a13.3 13.3 0 0 1-2.328-.899q-1.075-.54-1.691-1.46-.615-.918-.616-2.396 0-1.756.936-3.016.934-1.257 2.565-1.938 1.631-.68 3.78-.68c1.432 0 2.653.233 3.74.699q1.632.7 2.588 1.958.955 1.258 1.034 2.937l-3.024.2q-.119-1.437-1.234-2.437-1.114-.997-3.144-.998-1.194 0-2.089.38-.896.381-1.413 1.018-.516.638-.517 1.518 0 1 .616 1.577.617.58 1.69.92c.718.226 1.505.433 2.369.618q1.293.28 2.547.64 1.253.36 2.307.94a4.7 4.7 0 0 1 1.712 1.598q.656 1.019.656 2.576 0 1.88-.936 3.217-.935 1.337-2.627 2.037-1.69.7-3.96.7zM98.655 24.333q-.558.72-1.333 1.018-.776.3-1.453.3-1.235 0-1.99-.82-.756-.82-.755-2.656V11.348h5.849V8.79h-5.849V2.956H89.9v5.832h-3.78v2.558h3.78v11.268q0 1.878.717 3.176.716 1.298 1.97 1.957 1.254.66 2.806.66.836 0 1.572-.161.735-.16 1.352-.48.616-.317 1.054-.68l-.718-2.755zM113.219 24.631q-1.273 1.18-3.581 1.179a6.6 6.6 0 0 1-2.387-.44q-1.155-.438-2.07-1.438-.915-.997-1.352-2.637-.31-1.168-.278-2.718h14.206q.397-2.078.04-3.915a7.8 7.8 0 0 0-1.432-3.256 7.8 7.8 0 0 0-2.744-2.258q-1.672-.839-3.979-.838-2.11 0-3.82.739a8.3 8.3 0 0 0-2.925 2.097q-1.214 1.357-1.87 3.197-.656 1.838-.656 4.035c0 1.465.2 2.71.597 3.897a9.4 9.4 0 0 0 1.771 3.157q1.174 1.377 2.904 2.177 1.731.799 3.921.798 2.388 0 4.157-.838 1.77-.84 2.865-2.277 1.093-1.439 1.293-3.315l-3.144-.24a4.73 4.73 0 0 1-1.512 2.898zm-8.574-11.128a5.7 5.7 0 0 1 2.048-1.958q1.273-.72 2.905-.72 1.829 0 2.965.78a4.67 4.67 0 0 1 1.672 2.018q.536 1.238.458 2.718h-10.982q.16-1.599.936-2.837zM131.564 28.408a7.9 7.9 0 0 1-2.805-.5 7.5 7.5 0 0 1-2.368-1.42 6.55 6.55 0 0 1-1.632-2.238v10.749h-3.264V8.788h3.264v3.716a6.8 6.8 0 0 1 1.632-2.257 7.3 7.3 0 0 1 2.368-1.438 8 8 0 0 1 2.845-.5q1.792 0 3.323.72a7.9 7.9 0 0 1 2.686 2.077q1.153 1.36 1.771 3.176.615 1.819.616 4.095c0 1.518-.206 2.811-.616 4.036q-.618 1.838-1.771 3.176a8.3 8.3 0 0 1-2.686 2.078q-1.53.738-3.363.739zm-6.805-10.03q0 2.317.755 3.975.756 1.659 2.128 2.518 1.372.86 3.084.859 1.351 0 2.467-.52a5.45 5.45 0 0 0 1.909-1.478q.797-.96 1.214-2.316.417-1.359.418-3.037-.001-2.317-.755-3.955-.756-1.638-2.088-2.558-1.334-.919-3.163-.918-1.276 0-2.388.52a5.7 5.7 0 0 0-1.909 1.437q-.796.92-1.235 2.317-.437 1.398-.437 3.157z"/></g></svg>
